resources/bell.svg

<svg xmlns="http://www.w3.org/2000/svg" width="24" height="24" fill="#f4f4f7" viewBox="0 0 24 24"><path stroke="#555e70" stroke-linecap="round" stroke-linejoin="round" stroke-width="2" d="M15 17H20L18.5951 15.5951C18.2141 15.2141 18 14.6973 18 14.1585V11C18 8.38757 16.3304 6.16509 14 5.34142V5C14 3.89543 13.1046 3 12 3C10.8954 3 10 3.89543 10 5V5.34142C7.66962 6.16509 6 8.38757 6 11V14.1585C6 14.6973 5.78595 15.2141 5.40493 15.5951L4 17H9M15 17V18C15 19.6569 13.6569 21 12 21C10.3431 21 9 19.6569 9 18V17M15 17H9"/></svg>

<svg width="24" height="24" fill="#f4f4f7">
  <path stroke="#555e70" stroke-linecap="round" stroke-linejoin="round" stroke-width="2" d="M15 17h5l-1.405-1.405A2.032 2.032 0 0 1 18 14.158V11a6.002 6.002 0 0 0-4-5.659V5a2 2 0 1 0-4 0v.341C7.67 6.165 6 8.388 6 11v3.159c0 .538-.214 1.055-.595 1.436L4 17h5m6 0v1a3 3 0 1 1-6 0v-1m6 0H9"/>
</svg>
